status/24/audio-volume-medium-symbolic.svg

<?xml version="1.0" encoding="UTF-8" standalone="no"?>
<svg
   xmlns:dc="http://purl.org/dc/elements/1.1/"
   xmlns:cc="http://creativecommons.org/ns#"
   xmlns:rdf="http://www.w3.org/1999/02/22-rdf-syntax-ns#"
   xmlns:svg="http://www.w3.org/2000/svg"
   xmlns="http://www.w3.org/2000/svg"
   width="24"
   height="24"
   id="svg3899"
   version="1.1">
  <defs
     id="defs3901" />
  <metadata
     id="metadata3904">
    <rdf:RDF>
      <cc:Work
         rdf:about="">
        <dc:format>image/svg+xml</dc:format>
        <dc:type
           rdf:resource="http://purl.org/dc/dcmitype/StillImage" />
        <dc:title />
      </cc:Work>
    </rdf:RDF>
  </metadata>
  <g
     id="layer1"
     transform="translate(0,-8)">
    <path
       style="opacity:0.4;color:#bebebe;fill:#bebebe;fill-opacity:1;fill-rule:nonzero;stroke:none;stroke-width:1.82310748000000000;marker:none;visibility:visible;display:inline;overflow:visible;enable-background:accumulate"
       d="M 18.59375,4.1875 17.1875,5.21875 c 1.501014,2.0418493 2.40625,4.5525852 2.40625,7.28125 0,2.712844 -0.889776,5.214488 -2.375,7.25 l 1.40625,1.03125 c 1.691656,-2.325113 2.6875,-5.186609 2.6875,-8.28125 0,-3.1102484 -1.011539,-5.981112 -2.71875,-8.3125 z"
       transform="translate(0,8)"
       id="path3934-0-6-7" />
    <path
       d="m 3,18 0,5 2,0 4,4 0,-13 -4,4 -2,0 z"
       id="path2387"
       style="color:#bebebe;fill:#bebebe;fill-opacity:1;fill-rule:nonzero;stroke:none;stroke-width:1.82310748;marker:none;visibility:visible;display:inline;overflow:visible;enable-background:accumulate" />
    <path
       style="opacity:1;color:#bebebe;fill:#bebebe;fill-opacity:1;fill-rule:nonzero;stroke:none;stroke-width:1.82310748000000000;marker:none;visibility:visible;display:inline;overflow:visible;enable-background:accumulate"
       d="M 12.46875 8.65625 L 11.125 9.625 C 11.722335 10.434117 12.09375 11.421395 12.09375 12.5 C 12.09375 13.562771 11.737745 14.541043 11.15625 15.34375 L 12.5 16.34375 C 13.284233 15.266177 13.75 13.930929 13.75 12.5 C 13.75 11.062321 13.259722 9.7365544 12.46875 8.65625 z "
       transform="translate(0,8)"
       id="path3934-9" />
    <path
       style="opacity:1;color:#bebebe;fill:#bebebe;fill-opacity:1;fill-rule:nonzero;stroke:none;stroke-width:1.82310748000000000;marker:none;visibility:visible;display:inline;overflow:visible;enable-background:accumulate"
       d="M 15.46875 6.46875 L 14.09375 7.46875 C 15.135382 8.8772215 15.75 10.613377 15.75 12.5 C 15.75 14.377356 15.126102 16.095202 14.09375 17.5 L 15.5 18.5 C 16.727292 16.810231 17.46875 14.747629 17.46875 12.5 C 17.46875 10.237021 16.711337 8.1646966 15.46875 6.46875 z "
       transform="translate(0,8)"
       id="path3934-0" />
  </g>
</svg>

<svg xmlns="http://www.w3.org/2000/svg" viewBox="0 0 24 24"><g color="#bebebe" fill="#bebebe"><path d="M18.594 4.188l-1.407 1.03a12.25 12.25 0 0 1 2.407 7.282c0 2.713-.89 5.214-2.375 7.25l1.402 1.03a14.025 14.025 0 0 0 2.688-8.28c0-3.11-1.01-5.98-2.72-8.313z" opacity=".4" overflow="visible"/><path d="M3 10v5h2l4 4V6l-4 4H3zm9.47-1.344l-1.345.97c.597.808.97 1.795.97 2.874a4.83 4.83 0 0 1-.94 2.844l1.345 1a6.527 6.527 0 0 0 1.25-3.844c0-1.438-.49-2.763-1.28-3.844zm3-2.186l-1.376 1a8.422 8.422 0 0 1 0 10.03l1.406 1c1.227-1.69 1.97-3.752 1.97-6 0-2.263-.76-4.335-2-6.03z" overflow="visible"/></g></svg>
